resources/icons/16px/area-of-interest.svg

<svg width="16" height="16" viewBox="0 0 16 16" fill="none" xmlns="http://www.w3.org/2000/svg">
<path fill-rule="evenodd" clip-rule="evenodd" d="M4.00003 3.66437C4.00003 1.64312 5.79313 0 8.00003 0C10.2069 0 11.9928 1.64312 12 3.66437C12 5.6925 8.00003 11 8.00003 11C8.00003 11 4.00003 5.6925 4.00003 3.66437ZM6.00003 4C6.00003 5.104 6.89603 6 8.00003 6C9.10403 6 10 5.104 10 4C10 2.896 9.10403 2 8.00003 2C6.89603 2 6.00003 2.896 6.00003 4ZM13.5043 10.2686L10.8241 8.66049L10.8451 8.62738C11.1859 8.08868 11.5326 7.51209 11.8443 6.94021L15.5145 9.14236C15.7619 9.29083 15.9332 9.53895 15.9842 9.82297C16.0353 10.107 15.9611 10.3992 15.7809 10.6245L11.7809 15.6245C11.5911 15.8618 11.3038 15.9999 11 15.9999H5.00001C4.69622 15.9999 4.40891 15.8618 4.21914 15.6245L0.219138 10.6245C0.0388703 10.3992 -0.0352679 10.107 0.0157749 9.82297C0.0668177 9.53895 0.238065 9.29083 0.485511 9.14236L4.1558 6.94019C4.4674 7.51207 4.81412 8.08867 5.15499 8.62738L5.17595 8.66047L2.49567 10.2686L5.48063 13.9999H10.5194L13.5043 10.2686Z" fill="black"/>
</svg>

<svg xmlns="http://www.w3.org/2000/svg" viewBox="0 0 16 16">
  <path d="M4 3.664C4 1.644 5.793 0 8 0s3.993 1.643 4 3.664C12 5.692 8 11 8 11S4 5.693 4 3.664M6 4a2 2 0 1 0 4.001-.001A2 2 0 0 0 6 4m7.504 6.269-2.68-1.609.021-.033c.34-.538.688-1.115 1-1.687l3.67 2.202a1 1 0 0 1 .266 1.483l-4 5A1 1 0 0 1 11 16H5a1 1 0 0 1-.78-.376l-4-5a1 1 0 0 1 .266-1.482l3.67-2.202a31 31 0 0 0 .999 1.687l.021.033-2.68 1.609 2.985 3.73h5.038z"/>
</svg>
